<?xml version="1.0" encoding="UTF-8"?>
<map version="1.10" tiledversion="1.11.2" orientation="orthogonal" renderorder="right-down" width="52" height="52" tilewidth="64" tileheight="64" infinite="0" nextlayerid="6" nextobjectid="129">
 <tileset firstgid="1" name="tiles" tilewidth="64" tileheight="64" tilecount="210" columns="10">
  <image source="../graphics/tilesets/world_tileset.png" width="640" height="1344"/>
 </tileset>
 <tileset firstgid="211" name="world_tileset" tilewidth="64" tileheight="64" tilecount="210" columns="10">
  <image source="../graphics/tilesets/world_tileset.png" width="640" height="1344"/>
 </tileset>
 <tileset firstgid="421" source="../tilesets/world_tileset.tsx"/>
 <tileset firstgid="631" name="objects" tilewidth="1" tileheight="1" tilecount="0" columns="0"/>
 <tileset firstgid="631" source="../tilesets/Objects.tsx"/>
 <layer id="1" name="Ground" width="52" height="52">
  <data encoding="csv">
162,162,162,162,162,162,162,162,162,162,162,162,162,162,162,162,162,162,162,162,162,162,162,162,162,162,162,162,162,162,162,162,162,162,162,162,162,162,162,162,162,162,162,162,162,162,162,162,162,162,162,162,
162,162,162,162,162,162,162,162,162,162,162,162,162,162,162,162,162,162,162,162,162,162,162,162,162,162,162,162,162,162,162,162,162,162,162,162,162,162,162,162,162,162,162,162,162,162,162,162,162,162,162,162,
162,162,162,162,162,162,162,162,162,162,162,162,162,162,162,162,162,162,162,162,162,162,162,162,162,162,162,162,162,162,162,162,162,162,162,162,162,162,162,162,162,162,162,162,162,162,162,162,162,162,162,162,
162,162,162,162,162,162,162,162,162,162,162,162,162,162,162,162,162,162,162,162,162,162,162,162,162,162,162,162,162,162,162,162,162,162,162,162,162,162,162,162,162,162,162,162,162,162,162,162,162,162,162,162,
162,162,162,162,162,162,162,162,162,162,162,162,162,162,162,162,162,162,162,162,162,162,162,162,162,162,162,162,162,162,162,162,162,162,162,162,162,162,162,162,162,162,162,162,162,162,162,162,162,162,162,162,
162,162,162,162,162,162,162,162,162,162,162,162,162,162,162,162,162,162,162,162,162,162,162,162,162,162,162,162,162,162,162,162,162,162,162,162,162,162,162,162,162,162,162,162,162,162,162,162,162,162,162,162,
162,162,162,162,162,162,582,582,582,582,582,571,565,565,565,565,565,565,565,565,565,565,565,565,565,565,565,565,565,565,565,565,565,565,565,565,565,565,565,565,565,565,565,565,565,565,565,565,565,162,162,162,
162,162,162,162,162,162,582,162,162,162,162,581,162,162,162,162,555,555,555,555,555,555,162,162,162,162,162,162,162,162,162,162,162,162,162,162,162,162,162,162,162,162,162,162,162,162,162,162,554,162,162,162,
162,162,162,162,162,162,582,162,162,162,162,581,162,162,162,162,162,162,162,162,162,162,162,162,162,162,162,162,162,162,162,162,162,162,162,162,162,162,162,162,162,162,618,162,162,162,162,162,554,162,162,162,
162,162,162,162,162,162,582,162,162,162,162,581,162,162,162,162,162,162,162,162,162,162,162,162,162,162,162,162,162,162,162,162,162,604,605,605,605,605,605,605,605,606,618,618,618,162,162,162,554,162,162,162,
162,162,162,162,162,162,582,162,162,162,162,581,162,162,162,162,162,162,162,162,162,162,162,162,162,162,162,162,162,162,162,618,618,614,615,615,615,615,615,615,615,627,606,618,618,162,162,162,554,162,162,162,
162,162,162,162,162,162,582,162,162,162,162,591,575,575,575,576,162,162,162,162,162,162,162,162,162,162,162,162,162,162,162,618,618,614,615,615,615,615,615,615,615,615,627,606,618,162,162,162,554,162,162,162,
162,162,162,162,162,162,582,162,162,162,162,585,162,162,162,586,162,162,162,162,162,162,162,162,162,162,162,162,162,162,162,162,162,614,615,615,615,615,615,615,615,615,615,627,606,162,162,162,554,162,162,162,
162,162,162,162,162,162,582,162,162,162,162,585,162,162,162,586,162,162,162,162,162,162,162,162,162,162,162,162,162,162,162,162,162,614,615,615,615,615,615,615,615,615,615,615,616,162,162,162,554,162,162,162,
162,162,162,162,162,162,582,162,575,575,575,575,162,162,162,586,162,162,162,162,162,162,162,162,162,162,162,162,162,162,162,162,162,624,609,615,615,615,615,615,615,615,615,615,616,162,162,162,554,162,162,162,
162,162,162,162,162,162,582,571,596,162,162,594,595,595,595,596,162,162,162,162,162,162,162,162,162,162,162,162,162,162,162,162,162,618,624,609,615,615,615,615,615,615,615,615,616,162,162,162,554,162,162,162,
162,162,162,162,162,162,556,596,162,162,162,162,162,162,162,162,162,162,162,162,162,162,162,162,162,162,162,162,162,162,162,162,162,618,618,624,625,625,625,625,625,625,625,625,626,162,162,162,554,162,162,162,
162,162,162,162,162,162,556,162,162,162,162,162,162,162,162,162,162,162,162,162,162,162,162,162,162,162,162,162,162,162,162,162,162,162,162,162,162,162,162,162,162,162,162,162,162,162,162,162,554,162,162,162,
162,162,162,162,162,162,556,162,162,162,162,162,162,162,162,162,162,162,162,162,162,162,162,162,162,162,162,162,162,162,162,162,162,162,162,162,162,162,162,162,162,162,162,162,162,162,162,162,554,162,162,162,
162,162,162,162,162,162,556,162,162,162,162,162,162,162,162,162,162,162,162,162,162,162,162,162,162,162,162,162,558,547,548,548,548,548,548,548,548,548,548,548,548,548,548,548,548,548,548,548,554,162,162,162,
162,162,162,162,162,162,556,162,162,162,162,162,162,162,162,162,162,162,162,162,162,162,162,162,162,162,162,162,558,557,162,162,162,162,162,162,162,162,162,162,162,162,162,162,162,162,162,162,554,162,162,162,
162,162,162,162,162,162,556,162,162,162,162,162,162,162,162,162,162,162,162,162,162,162,162,162,162,162,162,162,558,557,162,162,162,162,162,162,162,162,162,162,162,162,162,162,162,162,162,555,554,162,162,162,
162,162,162,162,162,162,556,162,162,162,162,162,162,162,162,162,162,162,162,162,162,162,162,162,162,162,162,162,558,557,162,162,162,162,162,162,162,547,568,568,568,568,568,568,568,568,568,568,554,162,162,162,
162,162,162,162,162,162,556,162,162,162,162,162,162,162,162,162,162,162,162,162,162,162,162,162,162,162,162,162,162,557,162,162,162,162,162,162,162,559,162,162,162,162,162,162,162,162,162,555,554,162,162,162,
162,162,162,162,162,162,556,162,162,162,162,162,162,162,162,162,162,162,162,162,162,162,162,162,162,162,162,162,162,568,568,568,568,597,568,568,568,569,162,162,162,162,162,162,162,162,162,162,554,162,162,162,
162,162,162,162,162,162,556,162,162,162,162,162,162,162,162,162,162,162,162,162,162,162,162,162,162,162,162,162,162,162,162,162,162,162,162,162,162,162,162,162,162,162,162,162,162,162,162,162,554,162,162,162,
162,162,162,162,162,162,556,162,162,162,162,162,162,162,162,162,162,162,162,162,162,162,162,162,162,162,162,162,162,162,162,162,162,162,162,162,162,162,162,162,162,162,162,162,162,162,162,162,554,162,162,162,
162,162,162,162,162,162,556,162,162,162,162,162,162,162,162,162,162,162,162,162,162,162,162,162,162,162,162,162,162,162,162,162,162,162,162,162,162,162,162,162,162,162,162,162,162,162,162,162,554,162,162,162,
162,162,162,162,162,162,556,162,162,162,162,162,162,162,162,162,162,162,162,162,162,162,162,162,162,162,162,162,162,162,162,162,162,162,162,162,162,162,162,162,162,162,162,162,162,162,162,162,554,162,162,162,
162,162,162,162,162,162,619,606,162,162,162,162,162,162,162,162,162,162,162,162,618,618,618,618,162,162,162,162,162,162,162,162,162,162,162,162,162,162,162,162,571,572,573,162,162,162,162,162,554,162,162,162,
162,162,162,162,162,162,614,627,606,162,162,162,162,162,162,162,618,618,618,618,618,162,618,618,162,162,162,162,571,572,572,572,572,572,572,572,573,585,585,585,586,582,583,162,162,162,162,162,554,162,162,162,
162,162,162,162,162,162,614,615,627,606,162,618,162,618,618,618,618,162,162,162,162,162,162,162,162,162,162,162,581,162,162,162,162,162,162,162,594,573,162,162,586,162,583,162,162,162,162,162,554,162,162,162,
162,162,162,162,162,162,614,615,615,627,606,618,618,618,618,618,162,162,162,162,162,162,162,162,162,162,162,162,581,162,162,162,162,162,162,162,162,594,573,162,586,162,583,162,162,162,162,162,554,162,162,162,
162,162,162,162,162,162,614,615,615,615,627,606,618,618,618,618,162,162,162,162,162,162,162,162,162,162,162,162,581,162,162,162,162,162,162,162,162,162,594,572,596,162,583,162,162,162,162,162,554,162,162,162,
162,162,162,162,162,162,614,615,615,615,615,627,628,628,628,606,162,162,162,162,162,162,162,162,162,162,162,162,581,162,162,162,162,162,162,162,162,162,162,162,162,162,583,162,162,162,162,162,554,162,162,162,
162,162,162,162,162,162,614,615,615,615,615,615,615,615,615,627,606,618,162,162,162,162,162,162,162,162,162,162,581,162,162,162,162,162,162,162,162,162,162,162,162,162,583,162,162,162,162,162,554,162,162,162,
162,162,162,162,162,162,614,615,615,615,615,615,615,615,615,615,627,606,162,162,162,162,162,162,162,162,162,162,581,162,162,162,162,162,162,162,162,162,162,162,162,162,583,162,162,162,162,162,554,162,162,162,
162,162,162,162,162,162,614,615,615,615,615,615,615,615,615,615,615,627,606,162,162,162,162,162,162,162,162,162,591,592,592,592,592,592,592,592,592,592,592,592,592,592,593,162,162,162,162,162,554,162,162,162,
162,162,162,162,162,162,614,615,615,615,615,615,615,615,615,615,615,615,627,606,162,162,162,162,162,162,162,162,162,162,162,162,162,162,162,162,162,162,162,162,162,162,162,162,162,162,162,162,554,162,162,162,
162,162,162,162,162,162,619,615,607,608,608,608,608,608,608,608,608,609,615,627,605,605,605,605,605,605,605,606,162,162,162,162,162,162,162,162,162,162,162,162,162,162,162,162,162,162,162,162,554,162,162,162,
162,162,162,162,162,162,614,615,617,618,618,618,618,618,618,618,618,619,615,615,615,615,615,615,615,615,615,616,618,162,162,162,162,162,162,162,162,162,162,162,162,162,162,162,162,162,162,162,554,162,162,162,
162,162,162,162,162,162,614,615,617,618,618,618,618,618,618,618,618,619,615,615,615,615,615,615,615,615,615,616,618,162,162,162,162,162,162,162,162,162,162,162,162,162,162,162,162,162,162,162,554,162,162,162,
162,162,162,162,162,162,614,615,617,618,618,618,618,618,618,618,618,619,615,615,615,615,615,615,615,615,615,616,618,162,162,162,162,162,162,162,162,162,162,162,162,162,162,162,162,162,162,162,554,162,162,162,
162,162,162,162,162,162,614,615,617,618,618,618,618,618,618,618,618,624,625,609,615,615,615,615,615,615,615,616,162,162,162,162,162,162,162,162,162,162,162,162,162,162,162,162,162,162,162,162,554,162,162,162,
162,162,162,162,162,162,614,615,617,618,618,618,618,618,618,618,618,618,618,619,615,615,615,615,615,615,615,627,605,605,606,162,162,162,162,162,162,162,162,162,162,162,162,162,162,162,162,162,584,162,162,162,
162,162,162,162,162,162,614,615,627,605,606,618,618,618,618,618,618,618,618,619,615,615,615,615,615,615,615,615,615,615,627,605,605,606,162,162,162,162,162,162,162,162,602,602,602,602,602,602,594,595,595,595,
162,162,162,162,162,162,614,615,615,615,617,618,618,618,618,604,598,598,628,629,615,615,615,615,615,615,615,615,615,615,615,615,615,627,605,605,606,162,162,162,582,611,612,612,612,612,612,612,612,612,612,612,
162,162,162,162,162,162,614,615,615,615,617,618,618,618,618,614,615,615,615,615,615,615,615,615,615,615,615,615,615,615,615,615,615,615,615,615,627,605,605,605,605,605,605,606,612,612,612,612,612,574,575,575,
162,162,162,162,162,162,614,615,615,615,627,628,628,628,628,629,615,615,615,615,615,615,615,615,615,615,615,615,615,615,615,615,615,615,615,615,615,615,615,615,615,615,615,627,605,605,605,605,605,554,585,585,
162,162,162,162,162,162,624,625,625,625,625,625,625,625,625,608,625,625,625,625,625,625,625,625,625,625,625,625,625,625,625,625,625,625,625,625,625,625,625,625,625,625,625,625,625,625,625,625,625,566,162,162,
162,162,162,162,162,162,162,162,162,162,162,162,162,162,162,162,162,162,162,162,162,162,162,162,162,162,162,162,162,162,162,162,162,162,162,162,162,162,162,162,162,162,162,162,162,162,162,162,162,162,162,162,
162,162,162,162,162,162,162,162,162,162,162,162,162,162,162,162,162,162,162,162,162,162,162,162,162,162,162,162,162,162,162,162,162,162,162,162,162,162,162,162,162,162,162,162,162,162,162,162,162,162,162,162
</data>
 </layer>
 <objectgroup id="4" name="Collisions">
  <object id="26" x="1832" y="1988" width="496" height="416"/>
  <object id="27" x="2356" y="2180" width="364" height="220"/>
  <object id="28" x="2604" y="1896" width="116" height="268"/>
  <object id="29" x="2340" y="2016" width="52" height="176"/>
  <object id="30" x="2292" y="2144" width="372" height="248"/>
  <object id="31" x="2384" y="2088" width="68" height="64"/>
  <object id="32" x="1828" y="1956" width="480" height="84"/>
  <object id="33" x="2436" y="1416" width="640"/>
  <object id="34" x="3084" y="312" width="240" height="2576"/>
  <object id="35" x="332" y="332" width="2996" height="104"/>
  <object id="36" x="516" y="364" width="188" height="576"/>
  <object id="37" x="700" y="744" width="264" height="216"/>
  <object id="38" x="312" y="892" width="192" height="132"/>
  <object id="39" x="180" y="936" width="220" height="2284"/>
  <object id="42" x="684" y="3072" width="280" height="24"/>
  <object id="44" x="684" y="2920" height="156"/>
  <object id="45" x="668" y="2908" width="8"/>
  <object id="46" x="660" y="2904"/>
  <object id="47" x="644" y="2896" width="4" height="4"/>
  <object id="48" x="632" y="2896" width="12"/>
  <object id="49" x="560" y="2884" width="68" height="12"/>
  <object id="50" x="560" y="2860" height="12"/>
  <object id="51" x="556" y="2836" width="4" height="20"/>
  <object id="52" x="552" y="2796" height="28"/>
  <object id="53" x="552" y="2760" height="20"/>
  <object id="54" x="552" y="2552" width="12" height="204"/>
  <object id="55" x="564" y="2540" width="4" height="4"/>
  <object id="56" x="576" y="2540" width="516" height="4"/>
  <object id="57" x="1100" y="2556" width="12" height="216"/>
  <object id="58" x="1128" y="2788"/>
  <object id="59" x="1168" y="2788" width="8"/>
  <object id="60" x="1196" y="2792" width="16"/>
  <object id="61" x="1128" y="2788" width="108" height="12"/>
  <object id="62" x="1220" y="2804" width="16" height="156"/>
  <object id="63" x="1160" y="2952" width="60" height="8"/>
  <object id="64" x="976" y="2956" width="4" height="120"/>
  <object id="65" x="992" y="2956"/>
  <object id="66" x="2432" y="1412" height="128"/>
  <object id="68" x="2244" y="1532" width="188" height="8"/>
  <object id="69" x="1864" y="1540" width="176" height="4"/>
  <object id="70" x="1852" y="1220" width="60" height="320"/>
  <object id="71" x="2376" y="1416" width="52" height="116"/>
  <object id="72" x="1924" y="1216" width="1152" height="60"/>
  <object id="73" x="336" y="3152" width="3044" height="152"/>
  <object id="74" x="3140" y="3056" width="64" height="104"/>
  <object id="75" x="3200" y="3048" width="152" height="36"/>
  <object id="121" x="2444" y="780" width="68" height="52"/>
  <object id="122" x="1632" y="3008" width="36" height="24"/>
  <object id="123" x="2892" y="2800" width="32" height="40"/>
  <object id="124" x="2852" y="1688" width="24" height="48"/>
  <object id="125" x="3512" y="1340"/>
 </objectgroup>
 <objectgroup id="3" name="Entities">
  <object id="77" x="2840" y="656">
   <point/>
  </object>
  <object id="78" name="Enemy" x="2988" y="1348">
   <point/>
  </object>
  <object id="79" name="Enemy" x="1336" y="1084">
   <point/>
  </object>
  <object id="80" name="Enemy" x="544" y="1564">
   <point/>
  </object>
  <object id="81" name="Enemy" x="860" y="580">
   <point/>
  </object>
  <object id="82" name="Enemy" x="768" y="2904">
   <point/>
  </object>
  <object id="83" name="Enemy" x="856" y="2648">
   <point/>
  </object>
  <object id="84" name="Enemy" x="1420" y="1768">
   <point/>
  </object>
  <object id="126" name="Exit" x="3304" y="2968">
   <point/>
  </object>
  <object id="127" name="Player" x="3128" y="2972">
   <point/>
  </object>
 </objectgroup>
 <objectgroup id="5" name="Exit">
  <object id="128" x="3276" y="2916" width="48" height="112"/>
 </objectgroup>
 <objectgroup id="2" name="Objects">
  <object id="1" gid="636" x="1048" y="1928" width="128" height="192"/>
  <object id="2" gid="636" x="1432" y="2408" width="128" height="192"/>
  <object id="3" gid="636" x="2184" y="2300" width="128" height="192"/>
  <object id="4" gid="636" x="1324" y="1444" width="128" height="192"/>
  <object id="5" gid="636" x="680" y="1456" width="128" height="192"/>
  <object id="6" gid="636" x="800" y="944" width="128" height="192"/>
  <object id="7" gid="636" x="1640" y="748" width="128" height="192"/>
  <object id="8" gid="636" x="624" y="2772" width="128" height="192"/>
  <object id="9" gid="636" x="1952" y="1480" width="128" height="192"/>
  <object id="10" gid="636" x="2924" y="1572" width="128" height="192"/>
  <object id="11" gid="636" x="88" y="2972" width="128" height="192"/>
  <object id="12" gid="636" x="284" y="2488" width="128" height="192"/>
  <object id="13" gid="636" x="84" y="1664" width="128" height="192"/>
  <object id="14" gid="636" x="408" y="1932" width="128" height="192"/>
  <object id="15" gid="636" x="124" y="724" width="128" height="192"/>
  <object id="16" gid="636" x="3140" y="976" width="128" height="192"/>
  <object id="17" gid="636" x="3204" y="2100" width="128" height="192"/>
  <object id="18" gid="639" x="1156" y="2948" width="64" height="128"/>
  <object id="19" gid="637" x="924" y="2960" width="64" height="192"/>
  <object id="20" gid="638" x="1280" y="2100" width="64" height="104"/>
  <object id="21" gid="638" x="988" y="1412" width="64" height="104"/>
  <object id="22" gid="638" x="1280" y="716" width="64" height="104"/>
  <object id="23" gid="637" x="2204" y="2836" width="64" height="192"/>
  <object id="24" gid="637" x="1976" y="1072" width="64" height="192"/>
  <object id="25" gid="637" x="528" y="700" width="64" height="192"/>
  <object id="85" gid="640" x="1646" y="1878" width="60" height="60"/>
  <object id="86" gid="640" x="1038" y="2194" width="60" height="60"/>
  <object id="87" gid="640" x="714" y="1778" width="60" height="60"/>
  <object id="88" gid="640" x="2818" y="1770" width="60" height="60"/>
  <object id="89" gid="640" x="1606" y="982" width="60" height="60"/>
  <object id="90" gid="640" x="938" y="1086" width="60" height="60"/>
  <object id="91" gid="640" x="2854" y="2858" width="60" height="60"/>
  <object id="92" gid="640" x="2886" y="2834" width="60" height="60"/>
  <object id="93" gid="640" x="2890" y="2866" width="60" height="60"/>
  <object id="94" gid="640" x="2842" y="1758" width="60" height="60"/>
  <object id="95" gid="640" x="2822" y="1726" width="60" height="60"/>
  <object id="96" gid="640" x="1654" y="978" width="60" height="60"/>
  <object id="97" gid="640" x="1702" y="982" width="60" height="60"/>
  <object id="98" gid="640" x="1682" y="946" width="60" height="60"/>
  <object id="99" gid="640" x="1638" y="954" width="60" height="60"/>
  <object id="100" gid="640" x="1642" y="930" width="60" height="60"/>
  <object id="101" gid="640" x="1662" y="930" width="60" height="60"/>
  <object id="102" gid="640" x="3078" y="2862" width="60" height="60"/>
  <object id="103" gid="640" x="3086" y="2874" width="60" height="60"/>
  <object id="104" gid="640" x="3090" y="2886" width="60" height="60"/>
  <object id="105" gid="640" x="510" y="990" width="60" height="60"/>
  <object id="106" gid="640" x="694" y="3050" width="60" height="60"/>
  <object id="107" gid="640" x="1598" y="3058" width="60" height="60"/>
  <object id="108" gid="640" x="1638" y="3066" width="60" height="60"/>
  <object id="109" gid="640" x="1626" y="3038" width="60" height="60"/>
  <object id="110" gid="640" x="2402" y="818" width="60" height="60"/>
  <object id="111" gid="640" x="2426" y="818" width="60" height="60"/>
  <object id="112" gid="640" x="2438" y="806" width="60" height="60"/>
  <object id="113" gid="640" x="2450" y="794" width="60" height="60"/>
  <object id="114" gid="640" x="2478" y="818" width="60" height="60"/>
  <object id="115" gid="640" x="2474" y="846" width="60" height="60"/>
  <object id="116" gid="640" x="2466" y="866" width="60" height="60"/>
  <object id="117" gid="640" x="2446" y="862" width="60" height="60"/>
  <object id="118" gid="640" x="2426" y="854" width="60" height="60"/>
  <object id="119" gid="640" x="2418" y="850" width="60" height="60"/>
 </objectgroup>
</map>
